js-exam/assets/images/twitter.svg

<svg width="40" height="40" viewBox="0 0 40 40" fill="none" xmlns="http://www.w3.org/2000/svg">
<path d="M26.3438 16.75C26.3438 16.9062 26.3438 17.0312 26.3438 17.1875C26.3438 21.5312 23.0625 26.5 17.0312 26.5C15.1562 26.5 13.4375 25.9688 12 25.0312C12.25 25.0625 12.5 25.0938 12.7812 25.0938C14.3125 25.0938 15.7188 24.5625 16.8438 23.6875C15.4062 23.6562 14.1875 22.7188 13.7812 21.4062C14 21.4375 14.1875 21.4688 14.4062 21.4688C14.6875 21.4688 15 21.4062 15.25 21.3438C13.75 21.0312 12.625 19.7188 12.625 18.125V18.0938C13.0625 18.3438 13.5938 18.4688 14.125 18.5C13.2188 17.9062 12.6562 16.9062 12.6562 15.7812C12.6562 15.1562 12.8125 14.5938 13.0938 14.125C14.7188 16.0938 17.1562 17.4062 19.875 17.5625C19.8125 17.3125 19.7812 17.0625 19.7812 16.8125C19.7812 15 21.25 13.5312 23.0625 13.5312C24 13.5312 24.8438 13.9062 25.4688 14.5625C26.1875 14.4062 26.9062 14.125 27.5312 13.75C27.2812 14.5312 26.7812 15.1562 26.0938 15.5625C26.75 15.5 27.4062 15.3125 27.9688 15.0625C27.5312 15.7188 26.9688 16.2812 26.3438 16.75Z" fill="white"/>
<circle opacity="0.4" cx="20" cy="20" r="19.5" stroke="white"/>
</svg>

<svg width="40" height="40" fill="none" xmlns="http://www.w3.org/2000/svg"><path d="M26.344 16.75v.438c0 4.343-3.282 9.312-9.313 9.312-1.875 0-3.593-.531-5.031-1.469.25.032.5.063.781.063a6.597 6.597 0 0 0 4.063-1.407 3.265 3.265 0 0 1-3.063-2.28c.219.03.406.062.625.062.281 0 .594-.063.844-.125a3.285 3.285 0 0 1-2.625-3.219v-.031c.438.25.969.375 1.5.406a3.229 3.229 0 0 1-1.469-2.719c0-.625.156-1.187.438-1.656a9.52 9.52 0 0 0 6.781 3.438c-.063-.25-.094-.5-.094-.75a3.28 3.28 0 0 1 3.282-3.282c.937 0 1.78.375 2.406 1.031a6.932 6.932 0 0 0 2.062-.812 3.206 3.206 0 0 1-1.437 1.813 6.151 6.151 0 0 0 1.875-.5c-.438.656-1 1.218-1.625 1.687Z" fill="#fff"/><circle opacity=".4" cx="20" cy="20" r="19.5" stroke="#fff"/></svg>
